modules/themify-icons/icons/control-pause.svg

<?xml version="1.0" encoding="utf-8"?>
<!-- Generated by IcoMoon.io -->
<!DOCTYPE svg PUBLIC "-//W3C//DTD SVG 1.1//EN" "http://www.w3.org/Graphics/SVG/1.1/DTD/svg11.dtd">
<svg version="1.1" xmlns="http://www.w3.org/2000/svg" xmlns:xlink="http://www.w3.org/1999/xlink" width="17" height="17" viewBox="0 0 17 17">
<g>
</g>
	<path d="M3 15h4v-13h-4v13zM4 3h2v11h-2v-11zM10 2v13h4v-13h-4zM13 14h-2v-11h2v11z" fill="#000000" />
</svg>

<svg xmlns="http://www.w3.org/2000/svg" width="17" height="17" viewBox="0 0 17 17"><path d="M3 15h4V2H3v13zM4 3h2v11H4V3zm6-1v13h4V2h-4zm3 12h-2V3h2v11z"/></svg>
